SVG_Azure_All/Policy Assignment.svg

<?xml version="1.0" encoding="UTF-8" standalone="no"?>
<!-- Generated by Microsoft Visio, SVG Export Policy Assignment.svg Page-1 -->

<svg
   xmlns:dc="http://purl.org/dc/elements/1.1/"
   xmlns:cc="http://creativecommons.org/ns#"
   xmlns:rdf="http://www.w3.org/1999/02/22-rdf-syntax-ns#"
   xmlns:svg="http://www.w3.org/2000/svg"
   xmlns="http://www.w3.org/2000/svg"
   xmlns:sodipodi="http://sodipodi.sourceforge.net/DTD/sodipodi-0.dtd"
   xmlns:inkscape="http://www.inkscape.org/namespaces/inkscape"
   width="0.66930217in"
   height="0.78735709in"
   viewBox="0 0 48.189836 56.689998"
   xml:space="preserve"
   class="st4"
   version="1.1"
   id="svg29"
   sodipodi:docname="Policy Assignment.svg"
   style="font-size:12px;overflow:visible;color-interpolation-filters:sRGB;fill:none;fill-rule:evenodd;stroke-linecap:square;stroke-miterlimit:3"
   inkscape:version="0.92.5 (2060ec1f9f, 2020-04-08)"><metadata
   id="metadata35"><rdf:RDF><cc:Work
       rdf:about=""><dc:format>image/svg+xml</dc:format><dc:type
         rdf:resource="http://purl.org/dc/dcmitype/StillImage" /></cc:Work></rdf:RDF></metadata><defs
   id="defs33" /><sodipodi:namedview
   pagecolor="#ffffff"
   bordercolor="#666666"
   borderopacity="1"
   objecttolerance="10"
   gridtolerance="10"
   guidetolerance="10"
   inkscape:pageopacity="0"
   inkscape:pageshadow="2"
   inkscape:window-width="640"
   inkscape:window-height="480"
   id="namedview31"
   showgrid="false"
   inkscape:zoom="1.7193066"
   inkscape:cx="32.125836"
   inkscape:cy="23.279613"
   inkscape:window-x="0"
   inkscape:window-y="0"
   inkscape:window-maximized="0"
   inkscape:current-layer="svg29" />
	<style
   type="text/css"
   id="style2">
	<![CDATA[
		.st1 {fill:#59b4d9;stroke:none;stroke-linecap:butt;stroke-width:12.24}
		.st2 {fill:#ffffff;fill-opacity:0.8;stroke:none;stroke-linecap:butt;stroke-width:12.24}
		.st3 {fill:#3999c6;stroke:none;stroke-linecap:butt;stroke-width:12.24}
		.st4 {fill:none;fill-rule:evenodd;font-size:12px;overflow:visible;stroke-linecap:square;stroke-miterlimit:3}
	]]>
	</style>

	<g
   id="g27"
   transform="translate(-12.240125,-12.2443)">
		<title
   id="title4">Page-1</title>
		<g
   id="group2280-1"
   transform="translate(12.24,-34.0157)">
			<title
   id="title6">Policy Assignment</title>
			<g
   id="group2281-2">
				<title
   id="title8">Sheet.2281</title>
				<g
   id="shape2282-3">
					<title
   id="title10">Sheet.2282</title>
					<path
   d="m 45.89,54.29 -5.5,-5.67 -2.3,-2.36 H 0 v 56.69 h 48.19 v -46.3 z"
   class="st1"
   id="path12"
   inkscape:connector-curvature="0"
   style="fill:#59b4d9;stroke:none;stroke-width:12.23999977;stroke-linecap:butt" />
				</g>
				<g
   id="shape2283-5"
   transform="translate(2.29471,-2.3622)">
					<title
   id="title15">Sheet.2283</title>
					<path
   d="M 35.57,50.98 H 0 v 51.97 h 43.6 v -43.7 h -8.03 z"
   class="st2"
   id="path17"
   inkscape:connector-curvature="0"
   style="fill:#ffffff;fill-opacity:0.8;stroke:none;stroke-width:12.23999977;stroke-linecap:butt" />
				</g>
				<g
   id="shape2284-7"
   transform="translate(12.6209,-12.3912)">
					<title
   id="title20">Sheet.2284</title>
					<path
   d="M 0,82.71 V 96 c 0,0.11 0.06,0.21 0.14,0.26 l 11.19,6.65 a 0.284544,0.292913 -180 0 0 0.286839,0 L 22.8,96.26 a 0.289134,0.297638 -180 0 0 0.14342,-0.256299 L 22.95,82.71 A 0.289134,0.297638 -180 0 0 22.80658,82.453701 L 11.62,75.8 a 0.284544,0.292913 -180 0 0 -0.286839,0 L 0.14,82.45 a 0.289134,0.297638 -180 0 0 -0.14342,0.256299 z"
   class="st3"
   id="path22"
   inkscape:connector-curvature="0"
   style="fill:#3999c6;stroke:none;stroke-width:12.23999977;stroke-linecap:butt" />
				</g>
			</g>
		</g>
	</g>
</svg>

<?xml version="1.0" encoding="UTF-8" standalone="no"?>
<!DOCTYPE svg PUBLIC "-//W3C//DTD SVG 1.1//EN" "http://www.w3.org/Graphics/SVG/1.1/DTD/svg11.dtd">
<!-- Generated by Microsoft Visio, SVG Export Policy Assignment.svg Page-1 -->
<svg xmlns="http://www.w3.org/2000/svg" xmlns:xlink="http://www.w3.org/1999/xlink" xmlns:ev="http://www.w3.org/2001/xml-events"
		width="1.00929in" height="1.42984in" viewBox="0 0 72.669 102.949" xml:space="preserve" color-interpolation-filters="sRGB"
		class="st4">
	<style type="text/css">
	<![CDATA[
		.st1 {fill:#59b4d9;stroke:none;stroke-linecap:butt;stroke-width:12.24}
		.st2 {fill:#ffffff;fill-opacity:0.8;stroke:none;stroke-linecap:butt;stroke-width:12.24}
		.st3 {fill:#3999c6;stroke:none;stroke-linecap:butt;stroke-width:12.24}
		.st4 {fill:none;fill-rule:evenodd;font-size:12px;overflow:visible;stroke-linecap:square;stroke-miterlimit:3}
	]]>
	</style>

	<g>
		<title>Page-1</title>
		<g id="group2265-1" transform="translate(12.24,-34.0157)">
			<title>Policy Assignment</title>
			<g id="group2266-2">
				<title>Sheet.2266</title>
				<g id="shape2267-3">
					<title>Sheet.2267</title>
					<path d="M45.89 54.29 L40.39 48.62 L38.09 46.26 L0 46.26 L0 102.95 L48.19 102.95 L48.19 56.65 L45.89 54.29 Z"
							class="st1"/>
				</g>
				<g id="shape2268-5" transform="translate(2.29471,-2.3622)">
					<title>Sheet.2268</title>
					<path d="M35.57 50.98 L0 50.98 L0 102.95 L43.6 102.95 L43.6 59.25 L35.57 59.25 L35.57 50.98 Z" class="st2"/>
				</g>
				<g id="shape2269-7" transform="translate(12.6209,-12.3912)">
					<title>Sheet.2269</title>
					<path d="M0 82.71 L0 96 C0 96.11 0.06 96.21 0.14 96.26 L11.33 102.91 a0.284544 0.292913 -180 0 0 0.286839 -1.42109E-14
								 L22.8 96.26 a0.289134 0.297638 -180 0 0 0.14342 -0.256299 L22.95 82.71 a0.289134 0.297638 -180 0
								 0 -0.14342 -0.256299 L11.62 75.8 a0.284544 0.292913 -180 0 0 -0.286839 1.42109E-13 L0.14 82.45 a0.289134
								 0.297638 -180 0 0 -0.14342 0.256299 Z" class="st3"/>
				</g>
			</g>
		</g>
	</g>
</svg>
